travel/img/icons/google.svg

<svg width="23" height="24" viewBox="0 0 23 24" fill="none" xmlns="http://www.w3.org/2000/svg">
<path fill-rule="evenodd" clip-rule="evenodd" d="M22.54 12.2614C22.54 11.4459 22.4668 10.6618 22.3309 9.90909H11.5V14.3575H17.6891C17.4225 15.795 16.6123 17.013 15.3943 17.8284V20.7139H19.1109C21.2855 18.7118 22.54 15.7636 22.54 12.2614Z" fill="#4285F4"/>
<path fill-rule="evenodd" clip-rule="evenodd" d="M11.5 23.4998C14.605 23.4998 17.2081 22.4701 19.1109 20.7137L15.3943 17.8282C14.3645 18.5182 13.0472 18.926 11.5 18.926C8.50474 18.926 5.96951 16.903 5.06519 14.1848H1.22314V17.1644C3.11542 20.9228 7.00451 23.4998 11.5 23.4998Z" fill="#34A853"/>
<path fill-rule="evenodd" clip-rule="evenodd" d="M5.06523 14.1851C4.83523 13.4951 4.70455 12.758 4.70455 12.0001C4.70455 11.2421 4.83523 10.5051 5.06523 9.81506V6.83552H1.22318C0.444318 8.38802 0 10.1444 0 12.0001C0 13.8557 0.444318 15.6121 1.22318 17.1646L5.06523 14.1851Z" fill="#FBBC05"/>
<path fill-rule="evenodd" clip-rule="evenodd" d="M11.5 5.07386C13.1884 5.07386 14.7043 5.65409 15.8961 6.79364L19.1945 3.49523C17.2029 1.63955 14.5997 0.5 11.5 0.5C7.00451 0.5 3.11542 3.07705 1.22314 6.83545L5.06519 9.815C5.96951 7.09682 8.50474 5.07386 11.5 5.07386Z" fill="#EA4335"/>
</svg>

<svg width="23" height="24" viewBox="0 0 23 24" fill="none" xmlns="http://www.w3.org/2000/svg"><path fill-rule="evenodd" clip-rule="evenodd" d="M22.54 12.261c0-.815-.073-1.6-.21-2.352H11.5v4.448h6.19a5.29 5.29 0 0 1-2.296 3.471v2.886h3.717c2.174-2.002 3.429-4.95 3.429-8.453Z" fill="#4285F4"/><path fill-rule="evenodd" clip-rule="evenodd" d="M11.5 23.5c3.105 0 5.708-1.03 7.61-2.786l-3.716-2.886c-1.03.69-2.347 1.098-3.894 1.098-2.995 0-5.53-2.023-6.435-4.741H1.223v2.98A11.496 11.496 0 0 0 11.5 23.5Z" fill="#34A853"/><path fill-rule="evenodd" clip-rule="evenodd" d="M5.065 14.185A6.913 6.913 0 0 1 4.705 12c0-.758.13-1.495.36-2.185v-2.98H1.223A11.496 11.496 0 0 0 0 12c0 1.856.444 3.612 1.223 5.165l3.842-2.98Z" fill="#FBBC05"/><path fill-rule="evenodd" clip-rule="evenodd" d="M11.5 5.074c1.688 0 3.204.58 4.396 1.72l3.299-3.299C17.203 1.64 14.6.5 11.5.5A11.496 11.496 0 0 0 1.223 6.835l3.842 2.98c.905-2.718 3.44-4.741 6.435-4.741Z" fill="#EA4335"/></svg>
